X:1
T:All Blues
C:Miles Davis
Z:All Rights Reserved
L:1/16
M:6/8
K:C
V:1 treble nm=" " snm=" "
V:1
"G7" B6- B4- BD | Bc B4- B4- BD | Bc B4- B4- BD | B6- B4 z2 |"C7" A4 _B2 c4 d2 | c4 _B2 A4- AD | %6
"G7" !~(!=B12 | G6- G4- G^G |"D7#9" A12 |"Eb7#9""D7#9" _B12 |"G7" A6 =B6 | A6 G6 |] %12

